public/assets/images/linkedin.svg

<svg xmlns="http://www.w3.org/2000/svg" width="32" height="32" fill="none" viewBox="0 0 32 32">
  <path
    fill="#007AB9"
    d="M16 32C24.8366 32 32 24.8366 32 16C32 7.16344 24.8366 0 16 0C7.16344 0 0 7.16344 0 16C0 24.8366 7.16344 32 16 32Z"
  />
  <path
    fill="#F1F2F2"
    d="M25.5598 17.2868V23.8832H21.7354V17.7289C21.7354 16.1836 21.1832 15.1283 19.7985 15.1283C18.7418 15.1283 18.114 15.8388 17.8368 16.5267C17.7361 16.7725 17.7102 17.114 17.7102 17.4588V23.883H13.8854C13.8854 23.883 13.9368 13.4595 13.8854 12.3805H17.7104V14.0105C17.7027 14.0234 17.6919 14.0359 17.6851 14.0482H17.7104V14.0105C18.2187 13.2285 19.1251 12.1104 21.1573 12.1104C23.6734 12.1104 25.5598 13.7544 25.5598 17.2868ZM9.88442 6.83594C8.57613 6.83594 7.7202 7.69472 7.7202 8.82303C7.7202 9.92738 8.55132 10.811 9.83422 10.811H9.85903C11.193 10.811 12.0224 9.92738 12.0224 8.82303C11.997 7.69472 11.193 6.83594 9.88442 6.83594ZM7.94752 23.8832H11.7708V12.3805H7.94752V23.8832Z"
  />
</svg>

<svg xmlns="http://www.w3.org/2000/svg" width="32" height="32" fill="none"><path fill="#007AB9" d="M16 32c8.837 0 16-7.163 16-16S24.837 0 16 0 0 7.163 0 16s7.163 16 16 16"/><path fill="#F1F2F2" d="M25.56 17.287v6.596h-3.825V17.73c0-1.545-.552-2.6-1.936-2.6-1.057 0-1.685.71-1.962 1.398-.1.245-.127.587-.127.932v6.424h-3.825s.052-10.423 0-11.502h3.825v1.63l-.025.037h.025v-.037c.509-.782 1.415-1.9 3.447-1.9 2.516 0 4.403 1.643 4.403 5.176M9.884 6.836c-1.308 0-2.164.859-2.164 1.987 0 1.104.831 1.988 2.114 1.988h.025c1.334 0 2.163-.884 2.163-1.988-.025-1.128-.829-1.987-2.138-1.987M7.948 23.883h3.823V12.381H7.948z"/></svg>
